dist/assets/img/cases/4.svg

<svg width="172" height="54" viewBox="0 0 172 54" fill="none" xmlns="http://www.w3.org/2000/svg">
<g clip-path="url(#clip0)">
<path d="M50.0705 30.627V25.7638H54.343C54.3379 25.9057 54.3352 26.0481 54.3352 26.1907C54.3352 32.284 58.8458 37.7895 66.4341 37.6291C67.8669 37.6291 69.2465 37.255 70.467 36.6135C70.6262 36.5599 70.6807 36.4381 70.6262 36.2928C70.6086 36.2394 70.4935 36.1512 70.3078 36.2394C69.3527 36.6135 68.3444 36.7739 67.177 36.7739C61.9765 36.7739 59.6417 32.4443 59.6417 26.4045V25.9235C59.6417 25.8702 59.6417 25.817 59.6419 25.7638H72.2262V25.763H75.9327C76.3041 25.763 76.4633 25.6026 76.4103 25.2285C75.8796 20.2576 73.1203 16.6764 68.5566 15.3403C68.2383 15.2334 68.026 15.2334 67.9199 15.4472C67.8138 15.661 68.0791 15.8748 68.2913 16.0351C70.6127 17.5939 71.1789 20.5672 71.2087 25.1021H59.6463C59.6955 20.92 60.1746 17.4341 62.6664 15.9282C62.6989 15.9037 62.7311 15.8806 62.7626 15.858C62.9374 15.7328 63.083 15.6283 63.038 15.4472C62.9829 15.2254 62.7727 15.1798 62.4012 15.2868C57.7838 16.6722 54.8034 20.6222 54.3858 25.1021H50.0705V0H42.0578V0.267252C43.7028 1.06901 44.7641 2.51216 44.7641 6.7882V25.1021H40.8698C40.306 20.197 37.5549 16.6651 33.0302 15.3403C32.7118 15.2334 32.4994 15.2334 32.3933 15.4472C32.2871 15.661 32.5526 15.8748 32.7649 16.0351C35.0862 17.5939 35.6523 20.5672 35.6821 25.1021H28.6139V25.7638H44.7641V30.627C44.7641 34.9031 43.7028 36.3463 42.0578 37.148V37.4154H52.7769V37.148C51.1319 36.3463 50.0705 34.9031 50.0705 30.627Z" fill="white"/>
<path d="M15.0699 20.4181C14.9638 19.2958 14.0617 16.8904 11.4084 15.768C11.3023 15.7146 11.1962 15.6077 11.1962 15.5008C11.1962 15.3939 11.3554 15.3939 11.5145 15.4474C14.274 16.5163 14.7514 16.6233 15.0167 15.0732H15.3353V20.4181H15.0699Z" fill="white"/>
<path d="M11.9925 36.9346C12.0743 37.0717 12.1517 37.0949 12.47 36.988C15.654 35.7586 16.7153 32.9258 16.7682 30.7877C16.8299 24.7997 11.9744 23.8903 7.88947 23.1254C4.93731 22.5727 2.38769 22.0951 2.38769 19.8304C2.38769 18.6546 2.81221 16.8906 4.56335 15.8751C4.5861 15.8598 4.60993 15.8445 4.63376 15.8293C4.7767 15.7378 4.87954 15.6522 4.82869 15.5545C4.73688 15.413 4.6695 15.3941 4.35109 15.501C1.75092 16.5701 0.105906 18.7615 0.0528407 21.2736C-0.162024 27.1789 4.52357 28.1304 8.55334 28.9485C11.4901 29.5448 14.0787 30.0705 14.1681 32.3914C14.1681 33.2465 14.115 35.3311 12.2578 36.507C12.0455 36.6139 11.8936 36.769 11.9925 36.9346Z" fill="white"/>
<path d="M0 30.8944V30.8408H0.424519C0.849039 33.0858 2.65324 35.5981 5.46568 36.7205C5.62488 36.7739 5.73452 36.9053 5.67795 36.9877C5.64522 37.0353 5.57441 37.0584 5.35956 36.9877C5.20797 36.9378 5.0591 36.8884 4.91302 36.8398L4.90647 36.8376L4.90368 36.8366L4.89266 36.833L4.89127 36.8325L4.89102 36.8323L4.889 36.8318C2.54228 36.0511 0.922535 35.5124 0.424519 37.4688H0.0530649L0 30.8944Z" fill="white"/>
<path d="M34.7824 36.2391C33.8272 36.6133 32.8189 36.7736 31.6515 36.7736C26.4512 36.7736 24.1162 32.444 24.1162 26.4042V25.9231C24.1162 21.3799 24.4877 17.5313 27.1411 15.9279C27.1733 15.9034 27.2058 15.8803 27.2371 15.8577C27.4119 15.7324 27.5575 15.628 27.5125 15.4468C27.4556 15.2178 27.2472 15.1796 26.8757 15.2864C21.8877 16.7831 18.8098 21.273 18.8098 26.1904C18.8098 32.2837 23.3203 37.7891 30.9087 37.6287C32.3414 37.6287 33.7211 37.2546 34.9416 36.6133C35.1008 36.5597 35.1433 36.4214 35.1007 36.2924C35.0686 36.1954 34.9416 36.1767 34.7824 36.2391Z" fill="white"/>
<path d="M86.634 15.4474C86.5798 15.2285 86.3687 15.1801 85.9973 15.287C81.0092 16.7837 77.8784 21.2735 77.8784 26.191C77.8784 32.2843 82.3889 37.7896 89.4465 37.6293C90.9323 37.6293 92.312 37.2552 93.5326 36.6138C93.6918 36.5602 93.7447 36.4534 93.6918 36.293C93.6649 36.2123 93.5326 36.1861 93.3734 36.2397C92.3652 36.6138 91.4099 36.7742 90.2424 36.7742C85.5197 36.7742 83.1849 32.4446 83.1849 26.4046V25.9236C83.1849 21.3804 83.6094 17.5319 86.2626 15.9285C86.2949 15.904 86.3273 15.8809 86.3588 15.8583C86.5334 15.733 86.679 15.6286 86.634 15.4474Z" fill="white"/>
<path d="M92.5224 15.7144C92.4163 15.661 92.329 15.5542 92.3632 15.4472C92.3976 15.3403 92.4695 15.2869 92.6287 15.3403C95.7065 16.3025 97.9882 18.5473 97.9882 21.006C97.9882 22.7164 97.0331 23.8924 95.5473 24.1062C93.9021 24.3201 92.3634 23.1976 92.2571 21.9682C92.0979 20.9527 92.5224 19.9905 93.4247 19.4561C95.1758 18.3336 94.3268 16.5697 92.5224 15.7144Z" fill="white"/>
<path d="M121.745 30.6271V15.0195H113.732V15.2869C115.377 16.0886 116.438 17.5318 116.438 21.8079V30.6271C116.438 34.9032 115.377 36.3462 113.732 37.148V37.4154H124.451V37.148C122.807 36.3462 121.745 34.9032 121.745 30.6271Z" fill="white"/>
<path d="M136.497 15.2869V15.0195H124.133V15.2869C126.255 16.0351 128.325 17.318 130.076 20.9526L137.452 37.4687H137.717L140.283 31.4891L146.15 19.099C147.663 16.6784 149.229 15.9406 150.931 15.3402V15.0731H144.033V15.3402C144.993 15.9457 145.987 16.6123 145.568 18.79L140.08 30.3849L136.073 21.3802C134.162 17.0506 135.223 16.0886 136.444 15.3402L136.497 15.2869Z" fill="white"/>
<path d="M165.885 36.2392C164.931 36.6134 163.923 36.7737 162.756 36.7737C157.555 36.7737 155.221 32.4441 155.221 26.4043V25.9232C155.221 21.38 155.591 17.5316 158.244 15.928C158.277 15.9037 158.31 15.8804 158.34 15.8578C158.515 15.7325 158.661 15.6283 158.617 15.447C158.556 15.2053 158.351 15.1797 157.98 15.2867C152.992 16.7832 149.914 21.2731 149.914 26.1905C149.914 32.2838 154.424 37.7893 162.012 37.6288C163.445 37.6288 164.824 37.2547 166.045 36.6134C166.193 36.5353 166.243 36.4084 166.204 36.2927C166.177 36.2068 166.068 36.1681 165.885 36.2392Z" fill="white"/>
<path d="M164.138 15.3406C168.7 16.6769 171.461 20.2581 171.99 25.229C172.044 25.6031 171.886 25.7634 171.514 25.7634H169.384V25.7643H159.721V25.1026H166.79C166.76 20.5675 166.195 17.5943 163.872 16.0354C163.66 15.8751 163.394 15.6613 163.502 15.4476C163.608 15.2339 163.82 15.2339 164.138 15.3406Z" fill="white"/>
<path d="M123.556 8.61254C121.123 8.55106 119.164 6.57657 119.102 4.12695H119.1C119.038 6.57657 117.078 8.55106 114.646 8.61254V8.61549C117.078 8.67698 119.038 10.6515 119.1 13.1011H119.102C119.164 10.6515 121.123 8.67698 123.556 8.61549V8.61254Z" fill="white"/>
<path d="M106.393 4.60738C106.333 8.56968 105.298 9.95841 103.718 10.7388C103.029 11.0571 102.34 11.2247 101.743 11.2247V30.0926C101.743 36.1859 105.511 37.4155 109.066 37.4155C109.597 37.4155 110.075 37.4155 110.499 37.3084C110.658 37.2551 110.711 37.2015 110.711 37.0946C110.711 36.9688 110.58 36.9746 110.396 36.983C110.345 36.9853 110.291 36.9878 110.234 36.9878C108.217 36.9878 107.05 35.0101 107.05 30.0926V18.386H107.05V15.6818H111.783V15.02H111.773V15.0196H107.05V0.000976562H106.393V4.60738Z" fill="white"/>
<path d="M56.0308 50.9615C54.9346 50.9615 54.0732 50.468 54.0732 49.468C54.0732 48.572 54.8823 47.9747 56.2005 47.9747C56.9836 47.9747 57.7405 48.2215 58.4844 48.7019V49.7278C57.9754 50.4031 57.0749 50.9615 56.0308 50.9615ZM55.8612 51.5069C56.9704 51.5069 57.8579 51.1172 58.5365 50.3251C58.5887 51.0394 59.0455 51.4029 59.6066 51.4029C59.8284 51.4029 59.9982 51.364 60.1156 51.299V50.8186C60.0112 50.8705 59.8938 50.8965 59.7501 50.8965C59.3327 50.8965 59.0716 50.5458 59.0716 50.0134V47.2604C59.0716 45.7542 57.9883 45.001 56.3701 45.001C55.5218 45.001 54.778 45.2088 54.1516 45.6113V46.2086C54.8172 45.7671 55.5218 45.5464 56.2657 45.5464C57.6751 45.5464 58.4844 46.1177 58.4844 47.3125V48.1305C57.7405 47.6761 56.9182 47.4553 56.0438 47.4553C55.3 47.4553 54.6866 47.637 54.1907 48.0136C53.7079 48.3772 53.4599 48.8707 53.4599 49.481C53.4599 50.1174 53.6948 50.6107 54.1646 50.9745C54.6475 51.3249 55.2087 51.5069 55.8612 51.5069Z" fill="white"/>
<path d="M66.0557 51.5069C66.8517 51.5069 67.5175 51.3249 68.0655 50.9615V50.377C67.5044 50.7667 66.865 50.9615 66.134 50.9615C65.3511 50.9615 64.6986 50.7017 64.1635 50.1954C63.6414 49.6759 63.3804 49.0266 63.3804 48.2604C63.3804 47.4943 63.6414 46.845 64.1635 46.3255C64.6986 45.806 65.3511 45.5464 66.134 45.5464C66.7604 45.5464 67.3609 45.7152 67.948 46.0529V45.4814C67.387 45.1567 66.7604 45.001 66.0688 45.001C65.1161 45.001 64.32 45.3127 63.7066 45.9489C63.0932 46.5853 62.78 47.3514 62.78 48.2475C62.78 49.1563 63.0932 49.9225 63.7066 50.5588C64.32 51.1952 65.1031 51.5069 66.0557 51.5069Z" fill="white"/>
<path d="M73.6769 50.9615C72.5806 50.9615 71.7193 50.468 71.7193 49.468C71.7193 48.572 72.5285 47.9747 73.8464 47.9747C74.6295 47.9747 75.3864 48.2215 76.1303 48.7019V49.7278C75.6215 50.4031 74.7209 50.9615 73.6769 50.9615ZM73.5072 51.5069C74.6164 51.5069 75.5039 51.1172 76.1824 50.3251C76.2346 51.0394 76.6916 51.4029 77.2527 51.4029C77.4745 51.4029 77.6442 51.364 77.7617 51.299V50.8186C77.6572 50.8705 77.5397 50.8965 77.3962 50.8965C76.9786 50.8965 76.7176 50.5458 76.7176 50.0134V47.2604C76.7176 45.7542 75.6344 45.001 74.0161 45.001C73.1678 45.001 72.4239 45.2088 71.7976 45.6113V46.2086C72.4631 45.7671 73.1678 45.5464 73.9118 45.5464C75.3212 45.5464 76.1303 46.1177 76.1303 47.3125V48.1305C75.3864 47.6761 74.5643 47.4553 73.6898 47.4553C72.946 47.4553 72.3325 47.637 71.8366 48.0136C71.3538 48.3772 71.1058 48.8707 71.1058 49.481C71.1058 50.1174 71.3409 50.6107 71.8105 50.9745C72.2935 51.3249 72.8546 51.5069 73.5072 51.5069Z" fill="white"/>
<path d="M83.5974 51.5066C84.7067 51.5066 85.555 51.0911 86.1684 50.2601V51.3509H86.7555V42.2607H86.1684V46.2605C85.555 45.4164 84.6936 45.0008 83.5974 45.0008C82.6577 45.0008 81.8878 45.3254 81.3005 45.9618C80.7131 46.598 80.4261 47.3642 80.4261 48.2601C80.4261 49.1563 80.7131 49.9224 81.3005 50.5587C81.8878 51.195 82.6577 51.5066 83.5974 51.5066ZM83.7018 50.9613C82.9318 50.9613 82.2924 50.7016 81.7834 50.1951C81.2744 49.6756 81.0263 49.0264 81.0263 48.2601C81.0263 47.494 81.2744 46.8448 81.7834 46.3253C82.2924 45.8059 82.9318 45.5462 83.7018 45.5462C84.7588 45.5462 85.7507 46.1955 86.1684 47.0914V49.4289C85.7639 50.325 84.785 50.9613 83.7018 50.9613Z" fill="white"/>
<path d="M93.6098 51.5069C94.5103 51.5069 95.202 51.3249 95.6979 50.9483V50.377C95.1106 50.7667 94.432 50.9615 93.6881 50.9615C92.8529 50.9615 92.1612 50.7146 91.6262 50.2341C91.091 49.7537 90.8171 49.1174 90.8039 48.3383H96.1807V48.1435C96.1807 47.4682 95.9849 46.7929 95.5674 46.1308C95.1629 45.4554 94.3537 45.001 93.3097 45.001C92.396 45.001 91.6522 45.3127 91.078 45.9359C90.5038 46.5462 90.2167 47.3255 90.2167 48.2604C90.2167 49.2083 90.5428 49.9875 91.1824 50.5979C91.8218 51.2082 92.6311 51.5069 93.6098 51.5069ZM90.8171 47.8318C90.8562 47.2345 91.1041 46.7021 91.5348 46.2476C91.9786 45.7801 92.5657 45.5464 93.2966 45.5464C94.967 45.5464 95.5936 46.9358 95.5936 47.8318H90.8171Z" fill="white"/>
<path d="M100.224 51.3511V46.9489C100.445 46.5462 100.759 46.2217 101.163 45.9489C101.581 45.6763 102.012 45.5464 102.442 45.5464C103.604 45.5464 104.191 46.2217 104.191 47.5851V51.3511H104.778V47.663C104.778 47.5462 104.765 47.3255 104.752 47.0138C104.948 46.6113 105.261 46.2606 105.666 45.9749C106.083 45.6893 106.514 45.5464 106.971 45.5464C107.375 45.5464 107.676 45.6242 108.08 45.8839C108.485 46.1308 108.733 46.728 108.733 47.5981V51.3511H109.32V47.4812C109.32 45.8839 108.524 45.001 107.114 45.001C106.005 45.001 105.092 45.5593 104.609 46.3255C104.322 45.4425 103.643 45.001 102.586 45.001C101.542 45.001 100.68 45.5075 100.224 46.1826V45.1567H99.6364V51.3511H100.224Z" fill="white"/>
<path d="M113.255 54.0005C114.194 54.0005 114.821 53.3382 115.395 52.0526L118.54 45.1572H117.901L115.46 50.5463L112.941 45.1572H112.276L115.16 51.2605C114.808 52.0526 114.494 52.6239 114.22 52.9487C113.959 53.2863 113.62 53.4551 113.189 53.4551C112.902 53.4551 112.628 53.3902 112.367 53.2473V53.8057C112.576 53.9355 112.876 54.0005 113.255 54.0005Z" fill="white"/>
</g>
<defs>
<clipPath id="clip0">
<rect width="172" height="54" fill="white"/>
</clipPath>
</defs>
</svg>

<svg width="172" height="54" viewBox="0 0 172 54" fill="none" xmlns="http://www.w3.org/2000/svg"><g clip-path="url(#clip0)" fill="#fff"><path d="M50.07 30.627v-4.863h4.273c-.005.142-.008.284-.008.427 0 6.093 4.51 11.598 12.1 11.438a8.68 8.68 0 004.032-1.015c.16-.054.214-.176.16-.321-.018-.054-.133-.142-.32-.054-.954.375-1.963.535-3.13.535-5.2 0-7.535-4.33-7.535-10.37v-.64h12.584v-.001h3.707c.371 0 .53-.16.477-.535-.53-4.97-3.29-8.552-7.853-9.888-.319-.107-.531-.107-.637.107-.106.214.16.428.371.588 2.322 1.559 2.888 4.532 2.918 9.067H59.646c.05-4.182.529-7.668 3.02-9.174l.097-.07c.174-.125.32-.23.275-.41-.055-.223-.265-.268-.637-.161-4.617 1.385-7.598 5.335-8.015 9.815H50.07V0h-8.012v.267c1.645.802 2.706 2.245 2.706 6.521v18.314H40.87c-.564-4.905-3.315-8.437-7.84-9.762-.318-.107-.53-.107-.637.107-.106.214.16.428.372.588 2.321 1.559 2.887 4.532 2.917 9.067h-7.068v.662h16.15v4.863c0 4.276-1.061 5.72-2.706 6.521v.267h10.719v-.267c-1.645-.802-2.706-2.245-2.706-6.521zm-35-10.209c-.106-1.122-1.008-3.528-3.662-4.65-.106-.053-.212-.16-.212-.267 0-.107.16-.107.319-.054 2.759 1.07 3.236 1.176 3.502-.374h.318v5.345h-.265zm-3.078 16.517c.082.137.16.16.478.053 3.184-1.23 4.245-4.062 4.298-6.2.062-5.988-4.794-6.898-8.879-7.663-2.952-.552-5.501-1.03-5.501-3.295 0-1.175.424-2.94 2.175-3.955l.07-.046c.144-.091.247-.177.196-.274-.092-.142-.16-.16-.478-.054-2.6 1.07-4.245 3.26-4.298 5.773-.215 5.905 4.47 6.856 8.5 7.674 2.937.597 5.526 1.122 5.615 3.443 0 .855-.053 2.94-1.91 4.116-.212.107-.364.262-.265.428zM0 30.894v-.053h.425c.424 2.245 2.228 4.757 5.04 5.88.16.053.27.184.213.267-.033.047-.104.07-.318 0l-.447-.148-.007-.002-.002-.001-.011-.004H4.89l-.002-.001c-2.347-.78-3.966-1.32-4.464.637H.053L0 30.894z"/><path d="M34.782 36.24c-.955.373-1.963.534-3.13.534-5.2 0-7.536-4.33-7.536-10.37v-.48c0-4.544.372-8.393 3.025-9.996.032-.025.065-.048.096-.07.175-.126.32-.23.276-.411-.057-.23-.266-.267-.637-.16-4.988 1.496-8.066 5.986-8.066 10.903 0 6.094 4.51 11.6 12.099 11.439a8.683 8.683 0 004.033-1.016c.159-.053.201-.192.159-.32-.032-.098-.16-.116-.319-.054zm51.852-20.793c-.054-.218-.265-.267-.637-.16-4.988 1.497-8.119 5.986-8.119 10.904 0 6.093 4.51 11.599 11.569 11.438a8.734 8.734 0 004.086-1.015c.159-.054.212-.16.159-.321-.027-.08-.16-.107-.319-.053-1.008.374-1.963.534-3.13.534-4.723 0-7.058-4.33-7.058-10.37v-.48c0-4.544.424-8.392 3.078-9.995.032-.025.064-.048.096-.07.174-.126.32-.23.275-.412zm5.888.267c-.106-.053-.193-.16-.159-.267.035-.107.106-.16.266-.107 3.078.962 5.36 3.207 5.36 5.666 0 1.71-.956 2.886-2.442 3.1-1.645.214-3.184-.908-3.29-2.138-.16-1.015.265-1.977 1.168-2.512 1.75-1.122.902-2.886-.903-3.742zm29.223 14.913V15.02h-8.013v.267c1.645.802 2.706 2.245 2.706 6.52v8.82c0 4.276-1.061 5.72-2.706 6.521v.267h10.719v-.267c-1.644-.802-2.706-2.245-2.706-6.52zm14.752-15.34v-.268h-12.364v.268c2.122.748 4.192 2.031 5.943 5.666l7.376 16.516h.265l2.566-5.98 5.867-12.39c1.513-2.42 3.079-3.158 4.781-3.759v-.267h-6.898v.267c.96.606 1.954 1.272 1.535 3.45l-5.488 11.595-4.007-9.005c-1.911-4.33-.85-5.291.371-6.04l.053-.053zm29.388 20.953c-.954.373-1.962.534-3.129.534-5.201 0-7.535-4.33-7.535-10.37v-.48c0-4.544.37-8.392 3.023-9.996l.096-.07c.175-.126.321-.23.277-.411-.061-.242-.266-.267-.637-.16-4.988 1.496-8.066 5.986-8.066 10.903 0 6.094 4.51 11.6 12.098 11.439a8.684 8.684 0 004.033-1.016c.148-.078.198-.205.159-.32-.027-.086-.136-.125-.319-.054z"/><path d="M164.138 15.34c4.562 1.337 7.323 4.918 7.852 9.889.054.374-.104.534-.476.534h-2.13v.001h-9.663v-.661h7.069c-.03-4.536-.595-7.509-2.918-9.068-.212-.16-.478-.374-.37-.587.106-.214.318-.214.636-.107zm-40.582-6.727c-2.433-.062-4.392-2.036-4.454-4.486h-.002c-.062 2.45-2.022 4.424-4.454 4.486v.002c2.432.062 4.392 2.037 4.454 4.486h.002c.062-2.45 2.021-4.424 4.454-4.486v-.002zm-17.163-4.006c-.06 3.963-1.095 5.351-2.675 6.132-.689.318-1.378.486-1.975.486v18.868c0 6.093 3.768 7.323 7.323 7.323.531 0 1.009 0 1.433-.108.159-.053.212-.106.212-.213 0-.126-.131-.12-.315-.112-.051.002-.105.005-.162.005-2.017 0-3.184-1.978-3.184-6.895V15.682h4.733v-.662h-4.733V0h-.657v4.606zM56.03 50.962c-1.095 0-1.957-.494-1.957-1.494 0-.896.81-1.493 2.127-1.493.784 0 1.54.246 2.284.727v1.026c-.509.675-1.41 1.233-2.453 1.233zm-.169.545c1.11 0 1.997-.39 2.675-1.182.053.714.51 1.078 1.07 1.078.222 0 .392-.039.51-.104v-.48a.798.798 0 01-.366.078c-.417 0-.678-.351-.678-.884V47.26c0-1.506-1.084-2.259-2.702-2.259-.848 0-1.592.208-2.218.61v.598c.665-.442 1.37-.663 2.114-.663 1.41 0 2.218.572 2.218 1.767v.817a4.61 4.61 0 00-2.44-.675c-.744 0-1.357.182-1.853.559a1.752 1.752 0 00-.731 1.467c0 .636.235 1.13.705 1.493a2.81 2.81 0 001.696.533zm10.195 0c.796 0 1.462-.182 2.01-.545v-.585c-.562.39-1.201.584-1.932.584-.783 0-1.435-.26-1.97-.766-.523-.52-.784-1.168-.784-1.935 0-.766.261-1.415.783-1.934.536-.52 1.188-.78 1.971-.78.626 0 1.227.17 1.814.507v-.572c-.561-.324-1.188-.48-1.88-.48-.952 0-1.748.312-2.361.948a3.199 3.199 0 00-.927 2.299c0 .908.313 1.675.927 2.31.613.637 1.396.949 2.349.949zm7.621-.545c-1.096 0-1.958-.494-1.958-1.494 0-.896.81-1.493 2.127-1.493.783 0 1.54.246 2.284.727v1.026c-.508.675-1.41 1.233-2.453 1.233zm-.17.545c1.11 0 1.997-.39 2.675-1.182.053.714.51 1.078 1.07 1.078.223 0 .392-.039.51-.104v-.48a.8.8 0 01-.366.078c-.417 0-.678-.351-.678-.884V47.26c0-1.506-1.084-2.259-2.702-2.259-.848 0-1.592.208-2.218.61v.598c.665-.442 1.37-.663 2.114-.663 1.41 0 2.218.572 2.218 1.767v.817a4.61 4.61 0 00-2.44-.675c-.744 0-1.358.182-1.853.559a1.752 1.752 0 00-.731 1.467c0 .636.235 1.13.705 1.493.482.35 1.044.533 1.696.533zm10.09 0c1.11 0 1.958-.416 2.571-1.247v1.09h.587v-9.09h-.587v4c-.613-.844-1.474-1.26-2.57-1.26-.94 0-1.71.325-2.297.962-.588.636-.875 1.402-.875 2.298 0 .896.287 1.662.874 2.299.588.636 1.358.948 2.297.948zm.105-.546c-.77 0-1.41-.26-1.919-.766-.509-.52-.757-1.169-.757-1.935s.248-1.415.757-1.935c.51-.52 1.149-.779 1.919-.779 1.057 0 2.049.65 2.466 1.545v2.338c-.404.896-1.383 1.532-2.466 1.532zm9.908.546c.9 0 1.592-.182 2.088-.559v-.571c-.587.39-1.266.584-2.01.584-.835 0-1.527-.246-2.062-.727-.535-.48-.809-1.117-.822-1.896h5.377v-.194c0-.676-.196-1.351-.614-2.013-.404-.676-1.213-1.13-2.257-1.13-.914 0-1.658.312-2.232.935-.574.61-.861 1.39-.861 2.324 0 .948.326 1.727.965 2.338.64.61 1.45.909 2.428.909zm-2.793-3.675c.04-.598.287-1.13.718-1.584.444-.468 1.03-.702 1.762-.702 1.67 0 2.297 1.39 2.297 2.286h-4.777zm9.407 3.519V46.95c.221-.403.535-.727.939-1a2.32 2.32 0 011.279-.403c1.162 0 1.749.676 1.749 2.04v3.765h.587v-3.688c0-.117-.013-.337-.026-.65.196-.402.509-.752.914-1.038.417-.286.848-.429 1.305-.429.404 0 .705.078 1.109.338.405.247.653.844.653 1.714v3.753h.587v-3.87c0-1.597-.796-2.48-2.206-2.48-1.109 0-2.022.558-2.505 1.325-.287-.883-.966-1.325-2.023-1.325-1.044 0-1.906.507-2.362 1.182v-1.026h-.588v6.194h.588zM113.255 54c.939 0 1.566-.662 2.14-1.947l3.145-6.896h-.639l-2.441 5.39-2.519-5.39h-.665l2.884 6.104c-.352.792-.666 1.363-.94 1.688-.261.337-.6.506-1.031.506a1.68 1.68 0 01-.822-.208v.559c.209.13.509.195.888.195z"/></g><defs><clipPath id="clip0"><path fill="#fff" d="M0 0h172v54H0z"/></clipPath></defs></svg>
